packages/foundations/assets/icons/functional/images/security/lock_closed_20_filled.svg

<svg width="20" height="20" viewBox="0 0 20 20" fill="none" xmlns="http://www.w3.org/2000/svg">
<g clip-path="url(#clip0_2214_5820)">
<path fill-rule="evenodd" clip-rule="evenodd" d="M10 2.50858C12.1422 2.50858 13.995 4.25115 14 6.50858L14.001 7.06411C14.001 7.10115 14.0011 7.13587 14.0011 7.16827V7.33494C14.0011 7.35809 14.001 7.37892 14.001 7.39744L14 7.50858C15.1046 7.50858 16 8.40401 16 9.50858V15.4914C16 16.596 15.1046 17.4914 14 17.4914H6C4.89543 17.4914 4 16.596 4 15.4914V9.50858C4 8.40401 4.89543 7.50858 6 7.50858V6.50858C6 4.29944 7.79086 2.50858 10 2.50858ZM10 10.4914C9.44772 10.4914 9 10.9391 9 11.4914V13.4865L9.00673 13.6031C9.06449 14.1005 9.48716 14.4865 10 14.4865C10.5523 14.4865 11 14.0388 11 13.4865V11.4914L10.9933 11.3748C10.9355 10.8775 10.5128 10.4914 10 10.4914ZM10 4.50858C8.94564 4.50858 8.00297 5.34409 8 6.50858C7.9983 7.17521 8 7.50858 8 7.50858H12V6.50858C12 5.40401 11.1046 4.50858 10 4.50858Z" fill="#1A1C1F"/>
</g>
<defs>
<clipPath id="clip0_2214_5820">
<rect width="20" height="20" fill="white"/>
</clipPath>
</defs>
</svg>

<svg xmlns="http://www.w3.org/2000/svg" width="20" height="20" fill="none"><g clip-path="url(#a)"><path fill="#1A1C1F" fill-rule="evenodd" d="M10 2.509c2.142 0 3.995 1.742 4 4l.001.555v.333L14 7.51a2 2 0 0 1 2 2v5.982a2 2 0 0 1-2 2H6a2 2 0 0 1-2-2V9.51a2 2 0 0 1 2-2v-1a4 4 0 0 1 4-4m0 7.982a1 1 0 0 0-1 1v1.995l.007.117A1 1 0 0 0 11 13.486v-1.995l-.007-.116A1 1 0 0 0 10 10.49m0-5.982a1.995 1.995 0 0 0-2 2q-.002 1 0 1h4v-1a2 2 0 0 0-2-2" clip-rule="evenodd"/></g><defs><clipPath id="a"><path fill="#fff" d="M0 0h20v20H0z"/></clipPath></defs></svg>
